X:1
T:Title
%%score ( 1 2 ) { 3 | 4 }
L:1/8
M:3/4
K:Bb
V:1 treble nm="Grand Piano, Unnamed-000"
V:2 treble 
V:3 bass nm="Choir Pad, Angelus, LM"
V:4 bass 
V:1
 [B,E]2 [B,E]4 | [B,F]2 [EG]2 [FA]2 | [FB]2 [EB]4 | [EA]2 [DB]4- | [DB]2 [FB]2 [Fc]2 | z2 e4 | %6
w: By~Georg~Joseph,~1657 *||||||
 [Fd]2 [Gc]4 | c2 z2 z2 | z6 | [=EG]2 [F_A]4 | [F_A]2 E4 | [CF]2 [DG]4- | [DG]2 [=B,D]2 [CE]2 | %13
w: |||||||
 [DF]2 [EG]4 | [E_A]2 [EF]4 | [DF]2 E4- | E4 z2 |] %17
w: ||||
V:2
 x6 | x6 | x6 | x6 | x6 | [Fd]2 E2 G2 | x6 | FE [DB]4- | [DB]2 [DF]2 [DF]2 | x6 | x6 | x6 | x6 | %13
 x6 | x6 | x6 | x6 |] %17
V:3
 G,2 G,4 | B,2 B,2 C2 | B,2 G,4 | F,2 F,4- | F,2 D2 C2 | B,2 B,4 | B,2 B,4 | A,2 B,4- | %8
 B,2 B,2 B,2 | B,2[K:treble] C4 | C2 C4 | C2 =B,4- | B,2[K:bass] G,2 G,2 | B,2 B,4 | C2 B,4 | %15
 B,_A, G,4- | G,4 z2 |] %17
V:4
 E,2 E,4 | D,2 E,4 | D,2 C,4 | z2 B,,4- | B,,2 B,2 A,2 | A,2 G,2 C,2 | D,2 E,4 | F,2 B,,4- | %8
 B,,2 z2 _A,2 | G,2 F,4 | F,2 _A,4 | _A,2 G,4- | G,2 G,,2 C,2 | B,,2 E,4 | _A,,2 B,,4 | %15
 _A,,2 E,4- | E,4 z2 |] %17

